theme/dist/icons/facebook.svg

<svg fill="none" height="24" viewBox="0 0 24 24" width="24" xmlns="http://www.w3.org/2000/svg"><path d="m20.625 2.625h-17.25c-.41484 0-.75.33516-.75.75v17.25c0 .4148.33516.75.75.75h17.25c.4148 0 .75-.3352.75-.75v-17.25c0-.41484-.3352-.75-.75-.75zm-2.1656 5.47266h-1.4977c-1.1742 0-1.4015.55781-1.4015 1.37812v1.80702h2.8031l-.3656 2.8289h-2.4375v7.2633h-2.9227v-7.2609h-2.4445v-2.8313h2.4445v-2.08593c0-2.42109 1.4789-3.74062 3.6398-3.74062 1.036 0 1.9243.07734 2.1844.1125v2.52891z" fill="#000"/></svg>

<svg width="24" height="24" viewBox="0 0 24 24" fill="none" xmlns="http://www.w3.org/2000/svg"><path d="M20.625 2.625H3.375C2.96016 2.625 2.625 2.96016 2.625 3.375v17.25C2.625 21.0398 2.96016 21.375 3.375 21.375h17.25C21.0398 21.375 21.375 21.0398 21.375 20.625V3.375C21.375 2.96016 21.0398 2.625 20.625 2.625zM18.4594 8.09766H16.9617C15.7875 8.09766 15.5602 8.65547 15.5602 9.47578V11.2828H18.3633L17.9977 14.1117H15.5602V21.375H12.6375V14.1141H10.193V11.2828H12.6375V9.19687C12.6375 6.77578 14.1164 5.45625 16.2773 5.45625 17.3133 5.45625 18.2016 5.53359 18.4617 5.56875V8.09766H18.4594z" fill="#000"/></svg>
